X: 23530
T: Lieutenant Maguire's
R: jig
M: 6/8
K: Bminor
B>BB d2 e|f>BB f>BB|A>AA c2 d|e>AA e>AA|
B>BB d2 e|f>BB f>BB|f>ff edc|d>BB B2:|
d2 e f>dd|a>dd f>dd|d2 e f>dd|e>cA ABc|
d2 e f>dd|a>dd f>dd|~f3 edc|d>BB B2:|
B>BB BfB|BaB BfB|A>AA AeA|AfA AeA|
B>BB BfB|BaB BfB|f>ff edc|d>BB B2:|
BBB d2 e|fBB fBB|AAA c2 d|eAA eAA|
BBB d2 e|fBB fBB|f2 f e2 c|dBB B2:|
d2 e fdd|add fdd|dde fdd|ecA ABc|
d2 e fdd|add fdd|f2 f e2 c|dBB B2:|
BBB d2 e|f2 e fga|AAA c2 d|cee ecA|
BBB d2 e|f2 e fga|f2 f e2 c|dBB B2:|
BBB BfB|BaB fBB|AAA AeA|AaA eAA|
BBB BfB|BaB fBB|f2 f e2 c|dBB B2:|

